icon-themes/breeze_svg/cmd/lc_imagecontrol.svg

<svg viewBox="0 0 24 24" xmlns="http://www.w3.org/2000/svg"><path d="m4 4v1 15h1 6v-1-1l5-5 .5-.5-1.5-1.5-4 4-1-1-4.84375 4.84375-.15625.15625v-14h14v7h1v-7-1h-15zm4 2c-1.108 0-2 .892-2 2s.892 2 2 2 2-.892 2-2-.892-2-2-2zm10 6-1 1-5 5v1 1h2v-.03125l1-.96875 4-4 1-1zm-.28125 1.6875.5625.59375-4.96875 5-.59375-.59375z" fill="#4d4d4d"/></svg>

<svg xmlns="http://www.w3.org/2000/svg" viewBox="0 0 24 24">
 <path 
     style="fill:#4d4d4d" 
     d="M 4 4 L 4 5 L 4 20 L 5 20 L 11 20 L 11 19 L 11 18 L 16 13 L 16.5 12.5 L 15 11 L 11 15 L 10 14 L 5.15625 18.84375 L 5 19 L 5 5 L 19 5 L 19 12 L 20 12 L 20 5 L 20 4 L 5 4 L 4 4 z M 8 6 C 6.892 6 6 6.892 6 8 C 6 9.108 6.892 10 8 10 C 9.108 10 10 9.108 10 8 C 10 6.892 9.108 6 8 6 z M 18 12 L 17 13 L 12 18 L 12 19 L 12 20 L 14 20 L 14 19.96875 L 15 19 L 19 15 L 20 14 L 18 12 z M 17.71875 13.6875 L 18.28125 14.28125 L 13.3125 19.28125 L 12.71875 18.6875 L 17.71875 13.6875 z "
     />
 </svg>
